assets/svgs/misc-grey/MiscGrey27.svg

<svg xmlns="http://www.w3.org/2000/svg" viewBox="0 0 49 42"><path fill-rule="evenodd" d="M31.66.64c-6.92 0-12.99 4.31-15.34 10.68-1.18-.49-2.23-.71-3.97-.71C6.07 10.61.97 15.72.97 21.99c0 6.28 5.1 11.38 11.38 11.38h7.84c.82 0 1.5-.67 1.5-1.5s-.68-1.5-1.5-1.5h-7.84c-4.62 0-8.38-3.76-8.38-8.38 0-4.62 3.76-8.38 8.38-8.38 1.8 0 2.41.22 4.2 1.13l.01.01c.06.03.12.04.18.07.04.01.07.03.11.04h.02c.05.02.09.02.14.02.04.01.09.02.14.02.05.01.11 0 .16 0 .04 0 .08 0 .13-.01s.1-.02.16-.03c.04-.01.08-.02.12-.04.05-.01.09-.04.14-.06.04-.02.08-.03.12-.05.05-.03.09-.06.13-.09.03-.03.07-.05.11-.08.04-.04.07-.08.11-.12l.09-.09c.04-.05.07-.11.1-.17a.18.18 0 00.05-.07v-.01c.03-.06.05-.11.07-.17.01-.04.03-.08.04-.12 0-.01.01-.01.01-.02A13.332 13.332 0 0131.66 3.64c7.37 0 13.37 5.99 13.37 13.37 0 7.37-6 13.36-13.37 13.36-.83 0-1.5.67-1.5 1.5s.67 1.5 1.5 1.5c9.03 0 16.37-7.34 16.37-16.36C48.03 7.98 40.69.64 31.66.64z" clip-rule="evenodd"/><path fill-rule="evenodd" d="M32.79 27.32a1.5 1.5 0 001.07-2.55l-6.84-6.96a1.55 1.55 0 00-1.07-.45c-.41 0-.79.17-1.07.45l-6.73 6.87a1.5 1.5 0 002.14 2.1l4.08-4.17v17.72c0 .82.67 1.5 1.5 1.5s1.5-.68 1.5-1.5V22.46l4.35 4.41c.29.3.68.45 1.07.45z" clip-rule="evenodd"/></svg>

<svg width="49" height="42" viewBox="0 0 49 42" fill="none" xmlns="http://www.w3.org/2000/svg">
<path fill-rule="evenodd" clip-rule="evenodd" d="M31.66 0.640015C24.74 0.640015 18.67 4.95002 16.32 11.32C15.14 10.83 14.09 10.61 12.35 10.61C6.06997 10.61 0.969971 15.72 0.969971 21.99C0.969971 28.27 6.06997 33.37 12.35 33.37H20.19C21.01 33.37 21.69 32.7 21.69 31.87C21.69 31.04 21.01 30.37 20.19 30.37H12.35C7.72997 30.37 3.96997 26.61 3.96997 21.99C3.96997 17.37 7.72997 13.61 12.35 13.61C14.15 13.61 14.76 13.83 16.55 14.74C16.56 14.75 16.56 14.75 16.56 14.75C16.62 14.78 16.68 14.79 16.74 14.82C16.78 14.83 16.81 14.85 16.85 14.86C16.86 14.86 16.86 14.86 16.87 14.86C16.92 14.88 16.96 14.88 17.01 14.88C17.05 14.89 17.1 14.9 17.15 14.9C17.2 14.91 17.26 14.9 17.31 14.9C17.35 14.9 17.39 14.9 17.44 14.89C17.49 14.88 17.54 14.87 17.6 14.86C17.64 14.85 17.68 14.84 17.72 14.82C17.77 14.81 17.81 14.78 17.86 14.76C17.9 14.74 17.94 14.73 17.98 14.71C18.03 14.68 18.07 14.65 18.11 14.62C18.14 14.59 18.18 14.57 18.22 14.54C18.26 14.5 18.29 14.46 18.33 14.42C18.36 14.39 18.39 14.36 18.42 14.33C18.46 14.28 18.49 14.22 18.52 14.16C18.54 14.14 18.56 14.12 18.57 14.09C18.57 14.08 18.57 14.08 18.57 14.08C18.6 14.02 18.62 13.97 18.64 13.91C18.65 13.87 18.67 13.83 18.68 13.79C18.68 13.78 18.69 13.78 18.69 13.77C20.17 7.80001 25.51 3.64001 31.66 3.64001C39.03 3.64001 45.03 9.63002 45.03 17.01C45.03 24.38 39.03 30.37 31.66 30.37C30.83 30.37 30.16 31.04 30.16 31.87C30.16 32.7 30.83 33.37 31.66 33.37C40.69 33.37 48.03 26.03 48.03 17.01C48.03 7.98002 40.69 0.640015 31.66 0.640015Z" fill="#1A1919"/>
<path fill-rule="evenodd" clip-rule="evenodd" d="M32.79 27.32C33.17 27.32 33.55 27.18 33.84 26.89C34.43 26.31 34.44 25.36 33.86 24.77L27.02 17.81C26.73 17.53 26.35 17.36 25.95 17.36C25.54 17.36 25.16 17.53 24.88 17.81L18.15 24.68C17.57 25.27 17.58 26.22 18.17 26.8C18.76 27.38 19.71 27.37 20.29 26.78L24.37 22.61V40.33C24.37 41.15 25.04 41.83 25.87 41.83C26.7 41.83 27.37 41.15 27.37 40.33V22.46L31.72 26.87C32.01 27.17 32.4 27.32 32.79 27.32Z" fill="#1A1919"/>
</svg>
